icons/op-life-ring-16.svg

<svg width="16" height="16" viewBox="0 0 16 16" fill="none" xmlns="http://www.w3.org/2000/svg">
<g clip-path="url(#clip0_3929_118)">
<path fill-rule="evenodd" clip-rule="evenodd" d="M8 0C10.1217 0 12.1569 0.842482 13.6572 2.34277C15.1575 3.84306 16 5.87827 16 8C16 9.05058 15.7927 10.0909 15.3906 11.0615L15.2314 11.4209C14.8392 12.2502 14.3073 13.0072 13.6572 13.6572L13.3721 13.9277C12.6923 14.5438 11.9109 15.0388 11.0615 15.3906L10.6943 15.5322C9.83059 15.8412 8.9193 16 8 16C6.94943 16 5.90908 15.7927 4.93848 15.3906C4.08914 15.0388 3.30769 14.5438 2.62793 13.9277L2.34277 13.6572C1.69271 13.0072 1.16084 12.2502 0.768555 11.4209L0.609375 11.0615C0.207337 10.0909 -1.56548e-08 9.05058 0 8C4.74015e-08 5.87827 0.842482 3.84306 2.34277 2.34277C3.84306 0.842483 5.87827 1.57855e-08 8 0ZM10.0059 11.0664C8.79628 11.8501 7.20234 11.8505 5.99316 11.0664L3.96484 13.0947C4.43557 13.4672 4.95591 13.7743 5.5127 14.0049C6.30131 14.3315 7.14641 14.5 8 14.5C8.85359 14.5 9.69869 14.3315 10.4873 14.0049C11.0438 13.7744 11.5636 13.4669 12.0342 13.0947L10.0059 11.0664ZM11.0664 5.99316C11.8504 7.2026 11.8502 8.79653 11.0664 10.0059L13.0947 12.0342C13.4669 11.5636 13.7744 11.0438 14.0049 10.4873C14.3315 9.69869 14.5 8.85359 14.5 8C14.5 6.52778 13.9997 5.10765 13.0947 3.96484L11.0664 5.99316ZM2.9043 3.96484C1.99956 5.10757 1.5 6.52798 1.5 8C1.5 8.85359 1.66846 9.69869 1.99512 10.4873C2.22547 11.0434 2.53246 11.5629 2.9043 12.0332L4.93262 10.0059C4.1492 8.79674 4.14898 7.2024 4.93262 5.99316L2.9043 3.96484ZM9.53223 6.46777C8.75374 5.68928 7.47211 5.64062 6.62988 6.32227L6.46777 6.46777C5.63719 7.29923 5.63752 8.70197 6.46777 9.53223C7.29803 10.3625 8.70078 10.3628 9.53223 9.53223L9.67773 9.37012C10.3137 8.58483 10.314 7.41604 9.67773 6.62988L9.53223 6.46777ZM8 1.5C6.52798 1.5 5.10757 1.99956 3.96484 2.9043L5.99316 4.93262C7.20241 4.14895 8.79672 4.1492 10.0059 4.93262L12.0342 2.9043C10.8916 1.99986 9.47176 1.5 8 1.5Z" fill="#636C76"/>
</g>
<defs>
<clipPath id="clip0_3929_118">
<rect width="16" height="16" fill="white"/>
</clipPath>
</defs>
</svg>

<svg xmlns="http://www.w3.org/2000/svg" width="16" height="16" viewBox="0 0 16 16"><path d="M8 0a7.996 7.996 0 0 1 8 8 7.995 7.995 0 0 1-.609 3.061l-.16.36a7.996 7.996 0 0 1-1.574 2.236l-.285.271a8 8 0 0 1-2.311 1.463l-.367.141a7.995 7.995 0 0 1-8.066-1.604l-.285-.271a7.996 7.996 0 0 1-1.574-2.236l-.16-.36a7.995 7.995 0 0 1 1.734-8.718A7.996 7.996 0 0 1 8 0Zm2.006 11.066a3.716 3.716 0 0 1-4.013 0l-2.028 2.029a6.488 6.488 0 0 0 8.069 0Zm1.06-5.073a3.718 3.718 0 0 1 0 4.013l2.029 2.028A6.488 6.488 0 0 0 14.5 8a6.5 6.5 0 0 0-1.405-4.035ZM8 1.5c-1.472 0-2.892.5-4.035 1.404l2.028 2.029a3.718 3.718 0 0 1 4.013 0l2.028-2.029A6.5 6.5 0 0 0 8 1.5ZM2.904 3.965a6.505 6.505 0 0 0-.909 6.522 6.49 6.49 0 0 0 .909 1.546l2.029-2.027a3.718 3.718 0 0 1 0-4.013Zm6.628 2.503c-.778-.779-2.06-.827-2.902-.146l-.162.146c-.831.831-.83 2.234 0 3.064.83.831 2.233.831 3.064 0l.146-.162a2.206 2.206 0 0 0 0-2.74Z"/></svg>
